X: 25158
T: Maith Thú, A Mhuiris
R: polka
M: 2/4
K: Dmajor
|:A2 F2|EB A2|BA FE|E2 D2|
A2 F2|EB A2|dB AF|E2 D2:|
|:AB de|d2 A2|AB de|f2 e2|
AB de|fe dB|AF dF|E2 D2:|
|:FA FB|AF E2|FA FA|BA D2|
FA FB|AF E2|dB AF|E2 D2:|

